X:19017
T:Silver Spear
R:Reel
C:Trad.
O:Ireland
Z:Paul Hardy's Session Tunebook 2022 (see www.paulhardy.net). Creative Commons cc by-nc-sa licenced.
M:4/4
L:1/8
Q:1/4=120
K:D
AG|"D"FAA/A/A BAFA|"Bm"dfed BcdA|"D"FAA/A/A BAFA|"Bm"dfed B2 A2|
"D"FAA/A/A BAFA|"Bm"dfed Bdef|"Em"g2g e"D"f2f e|"Bm"dfed B2:|
|:de|"D"f2af "Bm"bfaf|"Em"gfed "G"Bcde|"D"f2af "Bm"bfaf|"Em"gfed "Bm"B2 A2|
"D"f2af "Bm"bfaf|"Em"gfed "G"Bcde|"Em"g2g e"D"f2f e|"Bm"dfed B2:|"_Out""A"A2|"Bm"B6|

